X:1
T: The Mooncoin Reel
C:
R:Reel
Q: 232
K:D
M:4/4
L:1/8
|:((3ABc) |d2 AF DF Ac|dc ed cA Ac|BA GF GA Bc|dc ed cA Bc|
d2 AF DF Ac|dc ed cA Ac|BA GF GA Bc|dc ec d2 de|
fd ad fd ad|fd ad fd df|ec gc ec gc|ec gc ec ce|
fd ad fd ad|fd ad fd df|g2 gf gb ag|fd ec d2:|
